X:1
T:Miss Helen McInnes
T:Miss Helen McInnes
T:William Marshall
C:William Marshall
%%score { ( 1 2 ) ( 3 4 ) }
L:1/8
M:6/8
K:A
V:1 treble 
V:2 treble 
V:3 bass 
V:4 bass 
V:1
 E2 A A2 F | GAB BGE | EGA ABc | d>ef ecA | dfa edc |"^tr" B>cA GFE | F>GA BGE | A3 A2 || e | %9
 cea cea | ^dfb dfb | geB geB | fge{e} ^dcB | bgb afa | geg f^dB | c>de f^dB | [Ge]3 E3 | %17
 E2 A A2 F | GAB BGE | EFG ABc | def ecA |{e} d2 c fed | cBA GFE |"^tr" F2 B{A} GFE |{G} A3 A2 |] %25
V:2
 x6 | x6 | x6 | x6 | x6 | x6 | D3 D3 | C3 C2 || x | x6 | x6 | x6 | x6 | x6 | x6 | x6 | x6 | C6 | %18
 E6 | x2 E- E3 | A x x4 | A2 x4 | A2 x4 | x6 | x5 |] %25
V:3
 A,,E,A, A,,E,A, | E,B,D E,B,D | x2 C CB,A, | F,2 G, A,2 =G, | A,3 A,3 | D,2 ^D, E,2 C, | %6
 D,2 B,, E,2 E,, | A,,E,A, A,,2 || z | A,[CE][CE] A,[CE][CE] | F,[A,B,][A,B,] F,[A,B,][A,B,] | %11
 E,[G,B,][G,B,] E,[B,E][B,E] | A,2 F, B,2 A, | B,3 B,3 | E,2 G, B,2 G, | A,2 F, B,2 B,, | %16
 E,F,E, D,C,B,, | A,,E,A, A,,E,A, | E,G,B, E,G,B, | z2 D CB,A, | F,2 G, A,2 =G, | F,2 E, D,C,B,, | %22
 A,,2 C, E,2 C, | D,F,B, E,B,D | A,,E,A, A,,2 |] %25
V:4
 x6 | x6 | E,3 E,3 | x6 | F,2 D, C,2 A,, | x6 | x6 | x5 || x | x6 | x6 | x6 | x6 | %13
 G,2 E, ^D,2 B,,, | x6 | x6 | x6 | x6 | x6 | E,6 | x6 | x6 | x6 | x6 | x5 |] %25

